biglinux-webapps/usr/share/icons/hicolor/scalable/apps/webapp-mailyahoo.svg

<svg xmlns="http://www.w3.org/2000/svg" xml:space="preserve" width="24" height="24" fill="none"><defs><clipPath id="b" clipPathUnits="userSpaceOnUse"><path d="M11.684 8.551h2.898v3.398h-2.898z"/></clipPath><clipPath id="c" clipPathUnits="userSpaceOnUse"><path d="M0 0h19v19H0Z"/></clipPath><clipPath id="d" clipPathUnits="userSpaceOnUse"><path d="M3.43 4.695h11.152v6.766H3.43Z"/></clipPath><clipPath id="e" clipPathUnits="userSpaceOnUse"><path d="M0 0h19v19H0Z"/></clipPath><clipPath id="f" clipPathUnits="userSpaceOnUse"><path d="M3.43 10.438h11.152v2.867H3.43Z"/></clipPath><clipPath id="g" clipPathUnits="userSpaceOnUse"><path d="M0 0h19v19H0Z"/></clipPath><clipPath id="h" clipPathUnits="userSpaceOnUse"><path d="M3.418 8.551h2.926v3.398H3.418Z"/></clipPath><clipPath id="i" clipPathUnits="userSpaceOnUse"><path d="M0 0h19v19H0Z"/></clipPath><linearGradient id="a" x1="48.82" x2="49" y1="109.567" y2="-8.854" gradientTransform="matrix(.18333 0 0 .18333 -.167 -.167)" gradientUnits="userSpaceOnUse" spreadMethod="pad"><stop offset="0" style="stop-opacity:1;stop-color:#5500d4"/><stop offset="1" style="stop-opacity:1;stop-color:#8d5fd3"/></linearGradient></defs><path d="M9 .75C1.5.75.75 4.5.75 9 .75 15 3 17.25 9 17.25S17.25 15 17.25 9C17.25 4.5 16.5.75 9 .75Z" style="fill:url(#a);stroke:none" transform="scale(1.33333)"/><g clip-path="url(#b)" transform="scale(1.33333)"><g clip-path="url(#c)"><path d="M14.57 11.941v-3.39l-2.875 1.695z" style="fill:#fff;fill-opacity:1;fill-rule:nonzero;stroke:none"/></g></g><g clip-path="url(#d)" transform="scale(1.33333)"><g clip-path="url(#e)"><path d="M13.41 7.148 9 4.695 4.59 7.148c-.098.051-.168.098-.254.133-.434.231-.836.438-.883.86l3.289 1.949L9 11.418l2.258-1.328 3.301-1.949c-.047-.411-.461-.629-.883-.86-.082-.035-.168-.07-.266-.133Zm-2.73 2.313c-.11.109-.242.203-.399.289a2.898 2.898 0 0 1-.508.18 3.026 3.026 0 0 1-.617.062c-.324 0-.629-.047-.894-.133a1.936 1.936 0 0 1-.676-.375 1.693 1.693 0 0 1-.41-.593 1.913 1.913 0 0 1-.145-.75c0-.289.047-.555.145-.809.097-.254.23-.473.41-.656.18-.18.398-.324.664-.434.266-.109.543-.156.859-.156.254 0 .496.035.7.109.218.071.398.18.558.325.156.144.266.304.348.496.086.195.121.398.121.64a1.545 1.545 0 0 1-.375 1.004 1.636 1.636 0 0 1-.422.328c-.168.086-.34.121-.531.121a.457.457 0 0 1-.254-.062c-.063-.035-.098-.094-.121-.18a.743.743 0 0 1-.41.219.8.8 0 0 1-.45-.039.628.628 0 0 1-.324-.289.989.989 0 0 1-.133-.52c0-.218.047-.422.133-.629a1.36 1.36 0 0 1 .387-.507.898.898 0 0 1 .566-.196c.243 0 .426.098.532.278l.05-.227h.532l-.305 1.449c-.023.098-.023.16-.023.184 0 .035.011.058.023.07.016.012.039.028.062.028.075 0 .168-.051.278-.149.121-.094.219-.23.301-.387.086-.168.132-.336.132-.543a1.26 1.26 0 0 0-.093-.461 1.064 1.064 0 0 0-.266-.375 1.043 1.043 0 0 0-.437-.242 1.772 1.772 0 0 0-.579-.082c-.218 0-.421.024-.605.082-.18.063-.352.145-.484.242-.145.11-.254.243-.348.399a1.792 1.792 0 0 0-.254.969c0 .23.047.449.144.64.098.196.231.352.399.485.18.132.387.218.641.277.253.062.531.062.843.039.254-.027.461-.086.641-.172.172-.082.328-.203.449-.351h.434a1.34 1.34 0 0 1-.289.402z" style="fill:#fff;fill-opacity:1;fill-rule:nonzero;stroke:none"/></g><path d="M9.23 7.414a.343.343 0 0 0-.121-.094.309.309 0 0 0-.156-.039.467.467 0 0 0-.328.145.94.94 0 0 0-.219.363c-.047.145-.07.305-.07.461 0 .156.035.289.098.375.07.086.156.133.265.133a.418.418 0 0 0 .336-.156.916.916 0 0 0 .219-.387c.047-.16.074-.305.074-.449 0-.071-.016-.133-.027-.192a.332.332 0 0 0-.071-.16Z" style="fill:#fff;fill-opacity:1;fill-rule:nonzero;stroke:none"/></g><g clip-path="url(#f)" transform="scale(1.33333)"><g clip-path="url(#g)"><path d="M9.098 11.77c-.051.035-.121.035-.184 0l-2.258-1.329-3.215 1.899c.024.254.133.484.313.652.195.192.461.313.75.313h9.004a1.073 1.073 0 0 0 1.062-.965l-3.226-1.899z" style="fill:#fff;fill-opacity:1;fill-rule:nonzero;stroke:none"/></g></g><g clip-path="url(#h)" transform="scale(1.33333)"><g clip-path="url(#i)"><path d="M3.43 8.551v3.39l2.875-1.695z" style="fill:#fff;fill-opacity:1;fill-rule:nonzero;stroke:none"/></g></g></svg>

<?xml version="1.0" encoding="UTF-8" standalone="no"?>
<svg
   width="24"
   height="24"
   viewBox="0 0 24 24"
   fill="none"
   version="1.1"
   id="svg154"
   sodipodi:docname="app.svg"
   inkscape:version="1.2.2 (b0a8486541, 2022-12-01)"
   xml:space="preserve"
   inkscape:export-filename="../../../../ícones big/mailyahoo.pdf"
   inkscape:export-xdpi="96"
   inkscape:export-ydpi="96"
   xmlns:inkscape="http://www.inkscape.org/namespaces/inkscape"
   xmlns:sodipodi="http://sodipodi.sourceforge.net/DTD/sodipodi-0.dtd"
   xmlns="http://www.w3.org/2000/svg"
   xmlns:svg="http://www.w3.org/2000/svg"><sodipodi:namedview
     id="namedview156"
     pagecolor="#ffffff"
     bordercolor="#000000"
     borderopacity="1"
     inkscape:showpageshadow="0"
     inkscape:pageopacity="1"
     inkscape:pagecheckerboard="false"
     inkscape:deskcolor="#ffffff"
     showgrid="true"
     inkscape:zoom="32"
     inkscape:cx="9.609375"
     inkscape:cy="15.453125"
     inkscape:window-width="1920"
     inkscape:window-height="1052"
     inkscape:window-x="0"
     inkscape:window-y="0"
     inkscape:window-maximized="1"
     inkscape:current-layer="svg154"
     showguides="true"
     guidecolor="#ff0000"
     guideopacity="1"
     inkscape:lockguides="true"
     showborder="true"
     borderlayer="true"><inkscape:grid
       type="xygrid"
       id="grid356"
       color="#000000"
       opacity="0.10196078"
       empcolor="#000000"
       empopacity="0.10196078"
       snapvisiblegridlinesonly="true"
       enabled="true"
       visible="true"
       dotted="false" /><sodipodi:guide
       position="4,12"
       orientation="-1,0"
       id="guide764"
       inkscape:locked="true"
       inkscape:label="left-circle"
       inkscape:color="rgb(255,0,0)" /><sodipodi:guide
       position="5,12"
       orientation="-1,0"
       id="guide2218"
       inkscape:locked="true"
       inkscape:label="left-square"
       inkscape:color="rgb(255,0,0)" /><sodipodi:guide
       position="12,20"
       orientation="0,1"
       id="guide2220"
       inkscape:locked="true"
       inkscape:label="top-circle"
       inkscape:color="rgb(255,0,0)" /><sodipodi:guide
       position="12,5"
       orientation="0,1"
       id="guide2222"
       inkscape:locked="true"
       inkscape:label="bottom-square"
       inkscape:color="rgb(255,0,0)" /><sodipodi:guide
       position="12,4"
       orientation="0,1"
       id="guide2224"
       inkscape:locked="true"
       inkscape:label="bottom-circle"
       inkscape:color="rgb(255,0,0)" /><sodipodi:guide
       position="19,12"
       orientation="-1,0"
       id="guide2226"
       inkscape:locked="true"
       inkscape:label="right-square"
       inkscape:color="rgb(255,0,0)" /><sodipodi:guide
       position="20,12"
       orientation="-1,0"
       id="guide2228"
       inkscape:locked="true"
       inkscape:label="right-circle"
       inkscape:color="rgb(255,0,0)" /><sodipodi:guide
       position="12,19"
       orientation="0,1"
       id="guide2230"
       inkscape:locked="true"
       inkscape:label="top-square"
       inkscape:color="rgb(255,0,0)" /><sodipodi:guide
       position="12,12"
       orientation="1,0"
       id="guide765"
       inkscape:locked="true" /><sodipodi:guide
       position="12,12"
       orientation="0,-1"
       id="guide767"
       inkscape:locked="true" /><sodipodi:guide
       position="12,12"
       orientation="0.70710678,0.70710678"
       id="guide2266"
       inkscape:locked="true"
       inkscape:label=""
       inkscape:color="rgb(255,0,0)" /><sodipodi:guide
       position="12,12"
       orientation="-0.70710678,0.70710678"
       id="guide2994"
       inkscape:locked="true"
       inkscape:label=""
       inkscape:color="rgb(255,0,0)" /><sodipodi:guide
       position="3,12"
       orientation="-1,0"
       id="guide131543"
       inkscape:locked="true"
       inkscape:label="left-horizontal"
       inkscape:color="rgb(255,0,0)" /><sodipodi:guide
       position="12,21"
       orientation="0,1"
       id="guide131545"
       inkscape:locked="true"
       inkscape:label="top-vertical"
       inkscape:color="rgb(255,0,0)" /><sodipodi:guide
       position="21,12"
       orientation="-1,0"
       id="guide131547"
       inkscape:locked="true"
       inkscape:label="right-horizontal"
       inkscape:color="rgb(255,0,0)" /><sodipodi:guide
       position="12,3"
       orientation="0,1"
       id="guide131549"
       inkscape:locked="true"
       inkscape:label="bottom-vertical"
       inkscape:color="rgb(255,0,0)" /></sodipodi:namedview><defs
     id="defs152"><linearGradient
       x1="48.819595"
       y1="109.56651"
       x2="49.000389"
       y2="-8.8538036"
       gradientUnits="userSpaceOnUse"
       gradientTransform="matrix(0.183333,0,0,0.183333,-0.166667,-0.166667)"
       spreadMethod="pad"
       id="linearGradient3198"><stop
         style="stop-opacity:1;stop-color:#5500d4"
         offset="0"
         id="stop3194" /><stop
         style="stop-opacity:1;stop-color:#8d5fd3"
         offset="1"
         id="stop3196" /></linearGradient><clipPath
       clipPathUnits="userSpaceOnUse"
       id="clipPath3208"><path
         d="m 11.684,8.551 h 2.898 v 3.398 h -2.898 z"
         id="path3206" /></clipPath><clipPath
       clipPathUnits="userSpaceOnUse"
       id="clipPath3218"><path
         d="M 0,0 H 19 V 19 H 0 Z"
         id="path3216" /></clipPath><clipPath
       clipPathUnits="userSpaceOnUse"
       id="clipPath3230"><path
         d="m 3.43,4.695 h 11.152 v 6.766 H 3.43 Z"
         id="path3228" /></clipPath><clipPath
       clipPathUnits="userSpaceOnUse"
       id="clipPath3240"><path
         d="M 0,0 H 19 V 19 H 0 Z"
         id="path3238" /></clipPath><clipPath
       clipPathUnits="userSpaceOnUse"
       id="clipPath3254"><path
         d="m 3.43,10.438 h 11.152 v 2.867 H 3.43 Z"
         id="path3252" /></clipPath><clipPath
       clipPathUnits="userSpaceOnUse"
       id="clipPath3264"><path
         d="M 0,0 H 19 V 19 H 0 Z"
         id="path3262" /></clipPath><clipPath
       clipPathUnits="userSpaceOnUse"
       id="clipPath3276"><path
         d="m 3.418,8.551 h 2.926 v 3.398 H 3.418 Z"
         id="path3274" /></clipPath><clipPath
       clipPathUnits="userSpaceOnUse"
       id="clipPath3286"><path
         d="M 0,0 H 19 V 19 H 0 Z"
         id="path3284" /></clipPath></defs><g
     id="g3182"
     transform="scale(1.3333333)"><g
       id="g3184"><g
         id="g3186"><g
           id="g3192"><path
             d="M 9,0.75 C 1.5,0.75 0.75,4.5 0.75,9 0.75,15 3,17.25 9,17.25 15,17.25 17.25,15 17.25,9 17.25,4.5 16.5,0.75 9,0.75 Z"
             style="fill:url(#linearGradient3198);stroke:none"
             id="path3200" /></g></g></g></g><g
     id="g3202"
     transform="scale(1.3333333)"><g
       id="g3204"
       clip-path="url(#clipPath3208)"><g
         id="g3210"><g
           id="g3212"><g
             id="g3214"
             clip-path="url(#clipPath3218)"><g
               id="g3220"><path
                 d="m 14.57,11.941 v -3.39 l -2.875,1.695 z"
                 style="fill:#ffffff;fill-opacity:1;fill-rule:nonzero;stroke:none"
                 id="path3222" /></g></g></g></g></g></g><g
     id="g3224"
     transform="scale(1.3333333)"><g
       id="g3226"
       clip-path="url(#clipPath3230)"><g
         id="g3232"><g
           id="g3234"><g
             id="g3236"
             clip-path="url(#clipPath3240)"><g
               id="g3242"><path
                 d="M 13.41,7.148 9,4.695 4.59,7.148 C 4.492,7.199 4.422,7.246 4.336,7.281 3.902,7.512 3.5,7.719 3.453,8.141 L 6.742,10.09 9,11.418 11.258,10.09 14.559,8.141 C 14.512,7.73 14.098,7.512 13.676,7.281 13.594,7.246 13.508,7.211 13.41,7.148 Z M 10.68,9.461 C 10.57,9.57 10.438,9.664 10.281,9.75 10.125,9.824 9.953,9.883 9.773,9.93 9.578,9.969 9.387,9.992 9.156,9.992 8.832,9.992 8.527,9.945 8.262,9.859 7.996,9.773 7.766,9.641 7.586,9.484 7.406,9.316 7.273,9.121 7.176,8.891 7.078,8.66 7.031,8.406 7.031,8.141 7.031,7.852 7.078,7.586 7.176,7.332 7.273,7.078 7.406,6.859 7.586,6.676 7.766,6.496 7.984,6.352 8.25,6.242 8.516,6.133 8.793,6.086 9.109,6.086 c 0.254,0 0.496,0.035 0.7,0.109 0.218,0.071 0.398,0.18 0.558,0.325 0.156,0.144 0.266,0.304 0.348,0.496 0.086,0.195 0.121,0.398 0.121,0.64 0,0.184 -0.035,0.364 -0.098,0.535 C 10.68,8.359 10.582,8.516 10.461,8.66 10.34,8.793 10.195,8.902 10.039,8.988 9.871,9.074 9.699,9.109 9.508,9.109 9.398,9.109 9.312,9.086 9.254,9.047 9.191,9.012 9.156,8.953 9.133,8.867 9.012,8.988 8.879,9.059 8.723,9.086 8.566,9.121 8.418,9.098 8.273,9.047 8.141,9 8.035,8.902 7.949,8.758 7.863,8.613 7.816,8.445 7.816,8.238 7.816,8.02 7.863,7.816 7.949,7.609 8.047,7.402 8.168,7.234 8.336,7.102 8.504,6.969 8.699,6.906 8.902,6.906 c 0.243,0 0.426,0.098 0.532,0.278 l 0.05,-0.227 h 0.532 L 9.711,8.406 C 9.688,8.504 9.688,8.566 9.688,8.59 c 0,0.035 0.011,0.058 0.023,0.07 0.016,0.012 0.039,0.028 0.062,0.028 0.075,0 0.168,-0.051 0.278,-0.149 0.121,-0.094 0.219,-0.23 0.301,-0.387 0.086,-0.168 0.132,-0.336 0.132,-0.543 0,-0.156 -0.035,-0.316 -0.093,-0.461 C 10.328,7.004 10.246,6.883 10.125,6.773 10.004,6.664 9.871,6.582 9.688,6.531 9.52,6.473 9.328,6.449 9.109,6.449 8.891,6.449 8.688,6.473 8.504,6.531 8.324,6.594 8.152,6.676 8.02,6.773 7.875,6.883 7.766,7.016 7.672,7.172 7.586,7.305 7.527,7.465 7.477,7.633 7.43,7.801 7.418,7.973 7.418,8.141 c 0,0.23 0.047,0.449 0.144,0.64 C 7.66,8.977 7.793,9.133 7.961,9.266 8.141,9.398 8.348,9.484 8.602,9.543 8.855,9.605 9.133,9.605 9.445,9.582 9.699,9.555 9.906,9.496 10.086,9.41 10.258,9.328 10.414,9.207 10.535,9.059 h 0.434 c -0.082,0.16 -0.168,0.293 -0.289,0.402 z"
                 style="fill:#ffffff;fill-opacity:1;fill-rule:nonzero;stroke:none"
                 id="path3244" /></g></g></g></g><path
         d="M 9.23,7.414 C 9.191,7.367 9.156,7.344 9.109,7.32 9.059,7.293 9.012,7.281 8.953,7.281 8.832,7.281 8.723,7.332 8.625,7.426 8.527,7.523 8.457,7.645 8.406,7.789 8.359,7.934 8.336,8.094 8.336,8.25 c 0,0.156 0.035,0.289 0.098,0.375 0.07,0.086 0.156,0.133 0.265,0.133 0.133,0 0.242,-0.047 0.336,-0.156 C 9.133,8.504 9.207,8.371 9.254,8.215 9.301,8.055 9.328,7.91 9.328,7.766 9.328,7.695 9.312,7.633 9.301,7.574 9.289,7.512 9.266,7.453 9.23,7.414 Z"
         style="fill:#ffffff;fill-opacity:1;fill-rule:nonzero;stroke:none"
         id="path3246" /></g></g><g
     id="g3248"
     transform="scale(1.3333333)"><g
       id="g3250"
       clip-path="url(#clipPath3254)"><g
         id="g3256"><g
           id="g3258"><g
             id="g3260"
             clip-path="url(#clipPath3264)"><g
               id="g3266"><path
                 d="m 9.098,11.77 c -0.051,0.035 -0.121,0.035 -0.184,0 L 6.656,10.441 3.441,12.34 c 0.024,0.254 0.133,0.484 0.313,0.652 0.195,0.192 0.461,0.313 0.75,0.313 h 9.004 c 0.289,0 0.554,-0.121 0.75,-0.313 0.168,-0.168 0.289,-0.398 0.312,-0.652 l -3.226,-1.899 z"
                 style="fill:#ffffff;fill-opacity:1;fill-rule:nonzero;stroke:none"
                 id="path3268" /></g></g></g></g></g></g><g
     id="g3270"
     transform="scale(1.3333333)"><g
       id="g3272"
       clip-path="url(#clipPath3276)"><g
         id="g3278"><g
           id="g3280"><g
             id="g3282"
             clip-path="url(#clipPath3286)"><g
               id="g3288"><path
                 d="m 3.43,8.551 v 3.39 l 2.875,-1.695 z"
                 style="fill:#ffffff;fill-opacity:1;fill-rule:nonzero;stroke:none"
                 id="path3290" /></g></g></g></g></g></g></svg>
